X:11
T: Maria, die ging wohl ber Land (Band 1), S. 39
N: P0785
O: Lothringen
S: PINCK, Louis: Verklingende Weisen, Bd 1, Metz 1928]
R: geistliche, religise Lieder]
M: 4/4
L: 1/8
K: A
E | A2BA=G3E | =c2BA=G2z
A | B2=c2d2cB | A2GGA2z
E | A2BB=G2GE | =c2BA=G2z
A | B2=ccddcB | A2G2A2z

@@@ Tune index: 7561
